img/close.svg

<?xml version="1.0" encoding="UTF-8" standalone="no"?>
<svg width="30px" height="30px" viewBox="0 0 30 30" version="1.1" xmlns="http://www.w3.org/2000/svg" xmlns:xlink="http://www.w3.org/1999/xlink" xmlns:sketch="http://www.bohemiancoding.com/sketch/ns">
    <!-- Generator: Sketch 3.0.4 (8053) - http://www.bohemiancoding.com/sketch -->
    <title>close</title>
    <desc>Created with Sketch.</desc>
    <defs></defs>
    <g id="Icons" stroke="none" stroke-width="1" fill="none" fill-rule="evenodd" sketch:type="MSPage">
        <g id="close" sketch:type="MSArtboardGroup" stroke="#FFFFFF" fill="#FFFFFF">
            <path d="M13.5857864,15 L0.864069351,2.27828291 C0.468403219,1.88261678 0.467340085,1.24838867 0.857864376,0.857864376 C1.25111133,0.464617421 1.88433171,0.470118146 2.27828291,0.864069351 L15,13.5857864 L27.7217171,0.864069351 C28.1173832,0.468403219 28.7516113,0.467340085 29.1421356,0.857864376 C29.5353826,1.25111133 29.5298819,1.88433171 29.1359306,2.27828291 L16.4142136,15 L29.1359306,27.7217171 C29.5315968,28.1173832 29.5326599,28.7516113 29.1421356,29.1421356 C28.7488887,29.5353826 28.1156683,29.5298819 27.7217171,29.1359306 L15,16.4142136 L2.27828291,29.1359306 C1.88261678,29.5315968 1.24838867,29.5326599 0.857864376,29.1421356 C0.464617421,28.7488887 0.470118146,28.1156683 0.864069351,27.7217171 L13.5857864,15 Z" id="Rectangle-3" sketch:type="MSShapeGroup"></path>
        </g>
    </g>
</svg>

<svg viewBox="0 0 30 30" xmlns="http://www.w3.org/2000/svg"><g fill="none" fill-rule="evenodd"><path d="m13.586 15l-12.722-12.722c-.396-.396-.397-1.03-.006-1.42.393-.393 1.026-.388 1.42.006l12.722 12.722 12.722-12.722c.396-.396 1.03-.397 1.42-.006.393.393.388 1.026-.006 1.42l-12.722 12.722 12.722 12.722c.396.396.397 1.03.006 1.42-.393.393-1.026.388-1.42-.006l-12.722-12.722-12.722 12.722c-.396.396-1.03.397-1.42.006-.393-.393-.388-1.026.006-1.42l12.722-12.722" stroke="#fff" fill="#fff"/></g></svg>
